X:84
T:Bonny Jane. RH.084
R:rant
S:Rev.R.Harrison’s MS,c1815,Cumbria
N:A bit like a version of the lesser known Lea Rigg.CGP..
O:England
A:Temple Sowerby,Cumbria
Z:vmp.Simon Wilson. Review PJH, 2008.
M:C
L:1/8
Q:2/4=90
K:G
|:BA|G2G/A/B D3E|GFGA B2(AG)|\
c3e dBAG|ABAG E2(BA)|!
G2(B/c/d) D3E|G2G2 g2(fe)|\
d>edB (AB)(cd)|B2A>G G2:|!
|:(^d/e/f)|g2(g/a/b) d3e|(gf)(ga) b2ga|\
(b/a/g) (a/g/e) gedB|ABAG E2BA|!
G2(B/c/d) D3E|G2G2 g2(fe)|\
d>edB (AB)(cd)|B2A>G G2:|

